X: 16
T: The Seven Step
R: barndance
M: 4/4
L: 1/8
K: Cmaj
c2 c2 c2 c2 | B>cd>B c3 d | e2 e2 e2 e2 | d>ef>d e4 |||: e>fg>e d4 | e>fg>e c4 | d>ef>d B>GA>B |[1 c>de>f g4 :|[2 c2 c2 c4 |]


Tune 1307	Setting 14632

